files/C3D/references/ICN-MTPM-A-000000-A-MDMKD-00004-A-001-01.svg

<svg width="156" height="180" viewBox="0 0 156 180" fill="none" xmlns="http://www.w3.org/2000/svg">
<path d="M81.3786 0H117.112V121.951C117.112 135.61 114.583 146.748 109.525 155.366C104.548 163.902 97.6543 170.163 88.8434 174.146C80.0325 178.049 69.957 180 58.6171 180C47.1955 180 37.0385 178.049 28.146 174.146C19.2535 170.163 12.319 163.902 7.34243 155.366C2.44748 146.748 0 135.61 0 121.951V0H35.7332V121.951C35.7332 129.675 36.5898 135.61 38.303 139.756C40.0978 143.902 42.6677 146.748 46.0126 148.293C49.439 149.756 53.6405 150.488 58.6171 150.488C63.6752 150.488 67.8359 149.756 71.0992 148.293C74.4441 146.748 76.9731 143.902 78.6864 139.756C80.4812 135.61 81.3786 129.675 81.3786 121.951V0Z" fill="#131A22"/>
<path d="M127.393 151.485H156V180H127.393V151.485Z" fill="#3152BA"/>
</svg>

<svg xmlns="http://www.w3.org/2000/svg" width="156" height="180" fill="none"><path fill="#131A22" d="M81.379 0h35.733v121.951q0 20.488-7.587 33.415-7.465 12.805-20.682 18.78Q75.628 180 58.617 180q-17.131 0-30.471-5.854-13.339-5.975-20.804-18.78Q0 142.439 0 121.951V0h35.733v121.951q0 11.586 2.57 17.805 2.692 6.22 7.71 8.537 5.14 2.195 12.604 2.195 7.587 0 12.482-2.195 5.017-2.318 7.587-8.537 2.693-6.219 2.693-17.805z"/><path fill="#3152BA" d="M127.393 151.485H156V180h-28.607z"/></svg>
